dist/svgs/devui-icons/editor/text-align-left.svg

<svg xmlns="http://www.w3.org/2000/svg" viewBox="0 0 16 16"><path fill-rule="evenodd" d="M0 0h1.5v16H0V0zm4 3h9v4H4V3zm1 1v2h7V4H5zM4 9h12v4H4V9zm1 1v2h10v-2H5z"/></svg>

<?xml version="1.0" encoding="UTF-8"?>
<svg width="16px" height="16px" viewBox="0 0 16 16" version="1.1" xmlns="http://www.w3.org/2000/svg" xmlns:xlink="http://www.w3.org/1999/xlink">
    <title>edit icon/align layer to left</title>
    <desc>Created with Sketch.</desc>
    <g id="edit-icon/align-layer-to-left" stroke="none" stroke-width="1" fill="none" fill-rule="evenodd">
        <g id="释义_富文本编辑/text-align-right-16x16" fill="#293040">
            <path d="M0,0 L1.5,0 L1.5,16 L0,16 L0,0 Z M4,3 L13,3 L13,7 L4,7 L4,3 Z M5,4 L5,6 L12,6 L12,4 L5,4 Z M4,9 L16,9 L16,13 L4,13 L4,9 Z M5,10 L5,12 L15,12 L15,10 L5,10 Z" id="形状"></path>
        </g>
    </g>
</svg>
